X: 76
%
T: Cailleach Oidhche
T: The Owl
C:Scotland
O:Pipe tune
B:Keith Norman MacDonald : "The Skye collection of the best reels & strathspeys extant" : 1887
Z:Ralph Palmer
R:Strathspey
M:C
L:1/8
K:A
e | AAe>A f>Ae>{/g}=g | =GG {/c}d>B =ge{/c}dB | AAe>A f>Ae{/f}=g | =GGB>d e>AA :|
g |{/g}a2 e>g {/g}a>e{/d}c>A | {/f}=g2 (d>g) BgB=G | {/g}a2 e>g {/g}a>ec>A | B<=GB<{/c}d e>AA>g |
{/g}a2 (e>g) {/g}a>ec>A | {/f}=g2 d>g d>gB>=G | A>B{/B}^c>d {/f}e>dB>{/f}=g | =G>GB>{/c}d eAA :|]


